src/public/assets/static/images/blank-profile-picture.svg

<svg xmlns="http://www.w3.org/2000/svg" width="1024pt" height="1024pt" viewBox="0 0 1024 1024"><path fill="#c5c5c5" d="M0 0h1024v1024H896.15c-2.57-9.62-1.73-19.67-3.33-29.43-3.81-34.81-11.37-69.17-21.88-102.56-5.5-16.06-11.46-31.99-18.37-47.5-3.46-9.17-8.38-17.66-12.55-26.49-2.73-5.77-6.3-11.07-9.34-16.66-7.06-12.95-15.12-25.34-23.67-37.34-7.41-9.56-14.17-19.63-22.31-28.61-6.41-8.55-14.3-15.77-21.56-23.56-5.6-5.73-11.49-11.15-17.22-16.75-15.42-13.44-31.39-26.33-48.66-37.33-9.3-5.4-18.21-11.52-27.96-16.11-6.26-3.03-12.45-6.2-18.65-9.33-9.5-4.77-19.65-7.98-29.53-11.81 1.5-2.34 3.62-4.15 6.13-5.33 12.19-6.24 23.16-14.59 33.68-23.29 5.89-6.14 13.29-10.7 18.46-17.53 4.11-5.19 9.14-9.58 13.05-14.94 4.67-6.37 9.7-12.5 13.74-19.31 3.11-5.2 6.08-10.49 9.28-15.63 4.89-7.79 7.52-16.66 11.19-25.03 3.71-8.43 5.83-17.41 8.43-26.21 3.02-10.38 4.16-21.17 5.75-31.82 1.51-9.74 1.14-19.61 1.18-29.43.23-14.8-2.51-29.44-5.09-43.96-3.14-12.08-6.21-24.26-11.19-35.75-3.02-6.97-5.31-14.29-9.15-20.87-6.64-10.93-12.6-22.33-20.72-32.28-5.47-8.09-12.67-14.72-18.78-22.28-2.3-2.69-5.07-4.92-7.79-7.18-4.36-3.6-8.16-7.83-12.69-11.22-7.69-5.73-15.16-11.82-23.57-16.49-7.93-4.36-15.31-9.78-23.81-13.03-9.44-3.64-18.61-8.03-28.39-10.7-8.23-2.24-16.34-5.04-24.8-6.27-11.94-1.84-23.9-4.13-36.03-3.98-9.74.09-19.54-.39-29.23.89-13.45 1.86-27.04 3.49-39.99 7.78-12.51 2.96-24.17 8.41-36.07 13.12-4.08 1.69-7.91 3.92-11.65 6.25-7.59 4.72-15.64 8.75-22.73 14.24-6 4.64-12.41 8.8-17.79 14.2-4.79 4.92-10.79 8.57-15.01 14.05-4.19 5.44-9.43 9.96-13.53 15.46-5.4 7.34-11.23 14.4-15.67 22.38-4.61 8.36-10.36 16.13-13.7 25.13-3.22 8.43-7.15 16.61-9.71 25.28-2.5 9.37-5.85 18.57-7.05 28.23-.96 7.37-3.78 14.45-3.63 21.96-.04 15.99-1.24 32.13 1.42 47.99 1.44 9.48 2.53 19.06 5.26 28.29 2.6 8.8 4.74 17.78 8.43 26.22 3.39 7.69 5.85 15.82 10.06 23.14 6.69 10.89 12.55 22.35 20.73 32.24 5.44 8.11 12.66 14.73 18.78 22.29 3.55 4.15 8.15 7.18 12.05 10.96 6.74 6.7 14.64 12.03 22.21 17.73 6.81 5.02 14.65 8.4 21.54 13.3-2.77 1.57-5.63 2.99-8.65 4.02-9.37 3.21-18.61 6.87-27.36 11.53-9.18 4.84-18.8 8.86-27.59 14.41-5.77 3.6-11.69 6.95-17.43 10.59-22.23 14.96-43.08 32.03-61.84 51.17-3.37 3.66-5.8 8.12-9.53 11.47-3.14 2.83-6.69 5.24-9.38 8.56-5.78 7.24-12.09 14.06-17.34 21.73-12.13 15.59-23.17 32.06-32.64 49.41-12.71 21.32-22.89 44.07-31.66 67.26-10.77 27.26-18.36 55.7-23.83 84.46-3.62 16.53-5.48 33.39-7.28 50.19-.37 6.72-.61 13.52-2.33 20.08H0z"/><path fill="#fff" d="M490.77 188.88c9.69-1.28 19.49-.8 29.23-.89 12.13-.15 24.09 2.14 36.03 3.98 8.46 1.23 16.57 4.03 24.8 6.27 9.78 2.67 18.95 7.06 28.39 10.7 8.5 3.25 15.88 8.67 23.81 13.03 8.41 4.67 15.88 10.76 23.57 16.49 4.53 3.39 8.33 7.62 12.69 11.22 2.72 2.26 5.49 4.49 7.79 7.18 6.11 7.56 13.31 14.19 18.78 22.28 8.12 9.95 14.08 21.35 20.72 32.28 3.84 6.58 6.13 13.9 9.15 20.87 4.98 11.49 8.05 23.67 11.19 35.75 2.58 14.52 5.32 29.16 5.09 43.96-.04 9.82.33 19.69-1.18 29.43-1.59 10.65-2.73 21.44-5.75 31.82-2.6 8.8-4.72 17.78-8.43 26.21-3.67 8.37-6.3 17.24-11.19 25.03-3.2 5.14-6.17 10.43-9.28 15.63-4.04 6.81-9.07 12.94-13.74 19.31-3.91 5.36-8.94 9.75-13.05 14.94-5.17 6.83-12.57 11.39-18.46 17.53-10.52 8.7-21.49 17.05-33.68 23.29-2.51 1.18-4.63 2.99-6.13 5.33 9.88 3.83 20.03 7.04 29.53 11.81 6.2 3.13 12.39 6.3 18.65 9.33 9.75 4.59 18.66 10.71 27.96 16.11 17.27 11 33.24 23.89 48.66 37.33 5.73 5.6 11.62 11.02 17.22 16.75 7.26 7.79 15.15 15.01 21.56 23.56 8.14 8.98 14.9 19.05 22.31 28.61 8.55 12 16.61 24.39 23.67 37.34 3.04 5.59 6.61 10.89 9.34 16.66 4.17 8.83 9.09 17.32 12.55 26.49 6.91 15.51 12.87 31.44 18.37 47.5 10.51 33.39 18.07 67.75 21.88 102.56 1.6 9.76.76 19.81 3.33 29.43H127.86c1.72-6.56 1.96-13.36 2.33-20.08 1.8-16.8 3.66-33.66 7.28-50.19 5.47-28.76 13.06-57.2 23.83-84.46 8.77-23.19 18.95-45.94 31.66-67.26 9.47-17.35 20.51-33.82 32.64-49.41 5.25-7.67 11.56-14.49 17.34-21.73 2.69-3.32 6.24-5.73 9.38-8.56 3.73-3.35 6.16-7.81 9.53-11.47 18.76-19.14 39.61-36.21 61.84-51.17 5.74-3.64 11.66-6.99 17.43-10.59 8.79-5.55 18.41-9.57 27.59-14.41 8.75-4.66 17.99-8.32 27.36-11.53 3.02-1.03 5.88-2.45 8.65-4.02-6.89-4.9-14.73-8.28-21.54-13.3-7.57-5.7-15.47-11.03-22.21-17.73-3.9-3.78-8.5-6.81-12.05-10.96-6.12-7.56-13.34-14.18-18.78-22.29-8.18-9.89-14.04-21.35-20.73-32.24-4.21-7.32-6.67-15.45-10.06-23.14-3.69-8.44-5.83-17.42-8.43-26.22-2.73-9.23-3.82-18.81-5.26-28.29-2.66-15.86-1.46-32-1.42-47.99-.15-7.51 2.67-14.59 3.63-21.96 1.2-9.66 4.55-18.86 7.05-28.23 2.56-8.67 6.49-16.85 9.71-25.28 3.34-9 9.09-16.77 13.7-25.13 4.44-7.98 10.27-15.04 15.67-22.38 4.1-5.5 9.34-10.02 13.53-15.46 4.22-5.48 10.22-9.13 15.01-14.05 5.38-5.4 11.79-9.56 17.79-14.2 7.09-5.49 15.14-9.52 22.73-14.24 3.74-2.33 7.57-4.56 11.65-6.25 11.9-4.71 23.56-10.16 36.07-13.12 12.95-4.29 26.54-5.92 39.99-7.78"/></svg>

<svg xmlns="http://www.w3.org/2000/svg" width="1024pt" height="1024pt" version="1.1" viewBox="0 0 1024 1024"><g id="#c5c5c5ff"><path fill="#c5c5c5" d="M 0.00 0.00 L 1024.00 0.00 L 1024.00 1024.00 L 896.15 1024.00 C 893.58 1014.38 894.42 1004.33 892.82 994.57 C 889.01 959.76 881.45 925.40 870.94 892.01 C 865.44 875.95 859.48 860.02 852.57 844.51 C 849.11 835.34 844.19 826.85 840.02 818.02 C 837.29 812.25 833.72 806.95 830.68 801.36 C 823.62 788.41 815.56 776.02 807.01 764.02 C 799.60 754.46 792.84 744.39 784.70 735.41 C 778.29 726.86 770.40 719.64 763.14 711.85 C 757.54 706.12 751.65 700.70 745.92 695.10 C 730.50 681.66 714.53 668.77 697.26 657.77 C 687.96 652.37 679.05 646.25 669.30 641.66 C 663.04 638.63 656.85 635.46 650.65 632.33 C 641.15 627.56 631.00 624.35 621.12 620.52 C 622.62 618.18 624.74 616.37 627.25 615.19 C 639.44 608.95 650.41 600.60 660.93 591.90 C 666.82 585.76 674.22 581.20 679.39 574.37 C 683.50 569.18 688.53 564.79 692.44 559.43 C 697.11 553.06 702.14 546.93 706.18 540.12 C 709.29 534.92 712.26 529.63 715.46 524.49 C 720.35 516.70 722.98 507.83 726.65 499.46 C 730.36 491.03 732.48 482.05 735.08 473.25 C 738.10 462.87 739.24 452.08 740.83 441.43 C 742.34 431.69 741.97 421.82 742.01 412.00 C 742.24 397.20 739.50 382.56 736.92 368.04 C 733.78 355.96 730.71 343.78 725.73 332.29 C 722.71 325.32 720.42 318.00 716.58 311.42 C 709.94 300.49 703.98 289.09 695.86 279.14 C 690.39 271.05 683.19 264.42 677.08 256.86 C 674.78 254.17 672.01 251.94 669.29 249.68 C 664.93 246.08 661.13 241.85 656.60 238.46 C 648.91 232.73 641.44 226.64 633.03 221.97 C 625.10 217.61 617.72 212.19 609.22 208.94 C 599.78 205.30 590.61 200.91 580.83 198.24 C 572.60 196.00 564.49 193.20 556.03 191.97 C 544.09 190.13 532.13 187.84 520.00 187.99 C 510.26 188.08 500.46 187.60 490.77 188.88 C 477.32 190.74 463.73 192.37 450.78 196.66 C 438.27 199.62 426.61 205.07 414.71 209.78 C 410.63 211.47 406.80 213.70 403.06 216.03 C 395.47 220.75 387.42 224.78 380.33 230.27 C 374.33 234.91 367.92 239.07 362.54 244.47 C 357.75 249.39 351.75 253.04 347.53 258.52 C 343.34 263.96 338.10 268.48 334.00 273.98 C 328.60 281.32 322.77 288.38 318.33 296.36 C 313.72 304.72 307.97 312.49 304.63 321.49 C 301.41 329.92 297.48 338.10 294.92 346.77 C 292.42 356.14 289.07 365.34 287.87 375.00 C 286.91 382.37 284.09 389.45 284.24 396.96 C 284.20 412.95 283.00 429.09 285.66 444.95 C 287.10 454.43 288.19 464.01 290.92 473.24 C 293.52 482.04 295.66 491.02 299.35 499.46 C 302.74 507.15 305.20 515.28 309.41 522.60 C 316.10 533.49 321.96 544.95 330.14 554.84 C 335.58 562.95 342.80 569.57 348.92 577.13 C 352.47 581.28 357.07 584.31 360.97 588.09 C 367.71 594.79 375.61 600.12 383.18 605.82 C 389.99 610.84 397.83 614.22 404.72 619.12 C 401.95 620.69 399.09 622.11 396.07 623.14 C 386.70 626.35 377.46 630.01 368.71 634.67 C 359.53 639.51 349.91 643.53 341.12 649.08 C 335.35 652.68 329.43 656.03 323.69 659.67 C 301.46 674.63 280.61 691.70 261.85 710.84 C 258.48 714.50 256.05 718.96 252.32 722.31 C 249.18 725.14 245.63 727.55 242.94 730.87 C 237.16 738.11 230.85 744.93 225.60 752.60 C 213.47 768.19 202.43 784.66 192.96 802.01 C 180.25 823.33 170.07 846.08 161.30 869.27 C 150.53 896.53 142.94 924.97 137.47 953.73 C 133.85 970.26 131.99 987.12 130.19 1003.92 C 129.82 1010.64 129.58 1017.44 127.86 1024.00 L 0.00 1024.00 L 0.00 0.00 Z" opacity="1"/></g><g id="#ffffffff"><path fill="#fff" d="M 490.77 188.88 C 500.46 187.60 510.26 188.08 520.00 187.99 C 532.13 187.84 544.09 190.13 556.03 191.97 C 564.49 193.20 572.60 196.00 580.83 198.24 C 590.61 200.91 599.78 205.30 609.22 208.94 C 617.72 212.19 625.10 217.61 633.03 221.97 C 641.44 226.64 648.91 232.73 656.60 238.46 C 661.13 241.85 664.93 246.08 669.29 249.68 C 672.01 251.94 674.78 254.17 677.08 256.86 C 683.19 264.42 690.39 271.05 695.86 279.14 C 703.98 289.09 709.94 300.49 716.58 311.42 C 720.42 318.00 722.71 325.32 725.73 332.29 C 730.71 343.78 733.78 355.96 736.92 368.04 C 739.50 382.56 742.24 397.20 742.01 412.00 C 741.97 421.82 742.34 431.69 740.83 441.43 C 739.24 452.08 738.10 462.87 735.08 473.25 C 732.48 482.05 730.36 491.03 726.65 499.46 C 722.98 507.83 720.35 516.70 715.46 524.49 C 712.26 529.63 709.29 534.92 706.18 540.12 C 702.14 546.93 697.11 553.06 692.44 559.43 C 688.53 564.79 683.50 569.18 679.39 574.37 C 674.22 581.20 666.82 585.76 660.93 591.90 C 650.41 600.60 639.44 608.95 627.25 615.19 C 624.74 616.37 622.62 618.18 621.12 620.52 C 631.00 624.35 641.15 627.56 650.65 632.33 C 656.85 635.46 663.04 638.63 669.30 641.66 C 679.05 646.25 687.96 652.37 697.26 657.77 C 714.53 668.77 730.50 681.66 745.92 695.10 C 751.65 700.70 757.54 706.12 763.14 711.85 C 770.40 719.64 778.29 726.86 784.70 735.41 C 792.84 744.39 799.60 754.46 807.01 764.02 C 815.56 776.02 823.62 788.41 830.68 801.36 C 833.72 806.95 837.29 812.25 840.02 818.02 C 844.19 826.85 849.11 835.34 852.57 844.51 C 859.48 860.02 865.44 875.95 870.94 892.01 C 881.45 925.40 889.01 959.76 892.82 994.57 C 894.42 1004.33 893.58 1014.38 896.15 1024.00 L 127.86 1024.00 C 129.58 1017.44 129.82 1010.64 130.19 1003.92 C 131.99 987.12 133.85 970.26 137.47 953.73 C 142.94 924.97 150.53 896.53 161.30 869.27 C 170.07 846.08 180.25 823.33 192.96 802.01 C 202.43 784.66 213.47 768.19 225.60 752.60 C 230.85 744.93 237.16 738.11 242.94 730.87 C 245.63 727.55 249.18 725.14 252.32 722.31 C 256.05 718.96 258.48 714.50 261.85 710.84 C 280.61 691.70 301.46 674.63 323.69 659.67 C 329.43 656.03 335.35 652.68 341.12 649.08 C 349.91 643.53 359.53 639.51 368.71 634.67 C 377.46 630.01 386.70 626.35 396.07 623.14 C 399.09 622.11 401.95 620.69 404.72 619.12 C 397.83 614.22 389.99 610.84 383.18 605.82 C 375.61 600.12 367.71 594.79 360.97 588.09 C 357.07 584.31 352.47 581.28 348.92 577.13 C 342.80 569.57 335.58 562.95 330.14 554.84 C 321.96 544.95 316.10 533.49 309.41 522.60 C 305.20 515.28 302.74 507.15 299.35 499.46 C 295.66 491.02 293.52 482.04 290.92 473.24 C 288.19 464.01 287.10 454.43 285.66 444.95 C 283.00 429.09 284.20 412.95 284.24 396.96 C 284.09 389.45 286.91 382.37 287.87 375.00 C 289.07 365.34 292.42 356.14 294.92 346.77 C 297.48 338.10 301.41 329.92 304.63 321.49 C 307.97 312.49 313.72 304.72 318.33 296.36 C 322.77 288.38 328.60 281.32 334.00 273.98 C 338.10 268.48 343.34 263.96 347.53 258.52 C 351.75 253.04 357.75 249.39 362.54 244.47 C 367.92 239.07 374.33 234.91 380.33 230.27 C 387.42 224.78 395.47 220.75 403.06 216.03 C 406.80 213.70 410.63 211.47 414.71 209.78 C 426.61 205.07 438.27 199.62 450.78 196.66 C 463.73 192.37 477.32 190.74 490.77 188.88 Z" opacity="1"/></g></svg>
